X:1
T:Micronesia, 88.88.88
T:Micronesia, 88.88.88
T:Pluma M. Kimball Brown, 1896
T:Public Domain Courtesy of the Cyber Hymnal™
C:Pluma M. Kimball Brown, 1896
Z:Public Domain
Z:Courtesy of the Cyber Hymnal™
%%score ( 1 2 ) ( 3 4 )
L:1/8
Q:1/4=100
M:6/8
K:C
V:1 treble 
V:2 treble 
V:3 bass 
V:4 bass 
V:1
 [CE] | [CE]2 [CE] ([CE][DF])[EG] | [FA]2 [FA] [FA]2 [FA] | [^FA]2 [FA] ([FA][GB])[Ac] | %4
 [GB]3 [^FA]3 | G3- G2 [B,D] | [B,D]2 [B,D] ([B,D][CE])[DF] | G2 [Gc] ([Ac][GB])[FA] | %8
 ([EG][^D^F])[EG] [=FA][EG][D^F] | [EG]3 [DF]3 | [CE]3- [CE]2 [EG] | (A^G)[FA] (dc)[FA] | %12
 ([EG][^D^F])[EG] ([=FA][EG])[E^F] | G2 [EG] G2 [^DA] | [EG]3 [DF]3 | [CE]3- [CE]2 |] %16
V:2
 x | x6 | x6 | x6 | x6 | G3- G2 x | x6 | (EF) x4 | x6 | x6 | x6 | F2 F2 x2 | x6 | (E^D) (F E) x2 | %14
 x6 | x5 |] %16
V:3
 [C,G,] | [C,G,]2 [C,G,] [C,G,]2 [C,C] | [F,C]2 [F,C] [F,C]2 [F,C] | [D,D]2 [D,D] [D,D]2 [D,D] | %4
 [D,D]3 [D,C]3 | [G,B,]3- [G,B,]2 [G,,G,] | [G,,G,]2 [G,,G,] G,2 G, | %7
 ([C,C][D,B,])[E,C] (A,B,)[F,C] | [C,C]2 [C,C] [C,C]2 [A,C] | [G,C]3 [G,,G,]3 | %10
 [C,G,]3- [C,G,]2 [C,C] | (CB,)[F,C] [F,A,]2 [F,C] | [C,C]2 [C,C] [C,C]2 [A,C] | %13
 (CB,)[G,C] (DC)[^F,C] | [G,C]3 [G,,G,]3 | [C,G,]3- [C,G,]2 |] %16
V:4
 x | x6 | x6 | x6 | x6 | x6 | x3 G,2 G, | x3 F,2 x | x6 | x6 | x6 | F,2 x4 | x6 | G,2 G,2 x2 | x6 | %15
 x5 |] %16

